polaris-icons/icons/newicons/ThumbsUpMajor.svg

<svg width="20" height="20" viewBox="0 0 20 20" fill="none" xmlns="http://www.w3.org/2000/svg">
<path fill-rule="evenodd" clip-rule="evenodd" d="M12.6952 17C14.3941 17 15.8808 15.8578 16.3186 14.2162L16.8727 12.1381C17.4298 10.0492 15.8554 8 13.6935 8C13.1724 8 12.75 7.57757 12.75 7.05647V5.57227C12.75 3.8755 11.3745 2.5 9.67774 2.5H9.25355C8.73251 2.5 8.29194 2.88572 8.22308 3.4022L8.03589 4.80614C7.8964 5.85227 7.25609 6.76359 6.32198 7.25H4.75001C3.78351 7.25 3.00001 8.0335 3.00001 9V13C3.00001 13.9665 3.78351 14.75 4.75001 14.75H5.10188C5.45892 14.75 5.79893 14.9027 6.03614 15.1695L6.54442 15.7414C7.25605 16.5419 8.27606 17 9.34721 17L12.6952 17ZM11.25 7.05647C11.25 8.406 12.344 9.5 13.6935 9.5C14.8698 9.5 15.7265 10.615 15.4234 11.7516L14.8692 13.8297C14.6065 14.8147 13.7145 15.5 12.6952 15.5L9.34721 15.5C8.70452 15.5 8.09251 15.2252 7.66553 14.7448L7.15725 14.173C7.10686 14.1163 7.05437 14.062 6.99993 14.01C6.99997 14.0067 7 14.0034 7 14L7 8.58809C8.3749 7.87828 9.31789 6.54068 9.52273 5.00439L9.65665 4H9.67774C10.5461 4 11.25 4.70393 11.25 5.57227V7.05647ZM5.5 8.75H4.75001C4.61194 8.75 4.50001 8.86193 4.50001 9L4.50001 13C4.50001 13.1381 4.61194 13.25 4.75001 13.25H5.10188C5.23599 13.25 5.36901 13.2598 5.5 13.279L5.5 8.75Z" fill="black"/>
</svg>

<svg viewBox="0 0 20 20" fill="none" xmlns="http://www.w3.org/2000/svg"><path fill-rule="evenodd" clip-rule="evenodd" d="M12.695 17a3.75 3.75 0 0 0 3.624-2.784l.554-2.078a3.29 3.29 0 0 0-3.18-4.138.944.944 0 0 1-.943-.944v-1.484a3.072 3.072 0 0 0-3.072-3.072h-.424a1.04 1.04 0 0 0-1.03.902l-.188 1.404a3.238 3.238 0 0 1-1.714 2.444h-1.572a1.75 1.75 0 0 0-1.75 1.75v4c0 .966.784 1.75 1.75 1.75h.352c.357 0 .697.153.934.42l.508.571a3.75 3.75 0 0 0 2.803 1.259h3.348Zm-1.445-9.944a2.444 2.444 0 0 0 2.444 2.444 1.79 1.79 0 0 1 1.73 2.252l-.555 2.078a2.25 2.25 0 0 1-2.174 1.67h-3.348a2.25 2.25 0 0 1-1.681-.755l-.509-.572a2.77 2.77 0 0 0-.157-.163v-5.422a4.738 4.738 0 0 0 2.523-3.584l.134-1.004h.02c.87 0 1.573.704 1.573 1.572v1.484Zm-5.75 1.694h-.75a.25.25 0 0 0-.25.25v4c0 .138.112.25.25.25h.352c.134 0 .267.01.398.029v-4.529Z" fill="#5C5F62"/></svg>
